findly-builder/apps/searchassist/src/assets/icons/facets/sort.svg

<svg width="14" height="12" viewBox="0 0 14 12" fill="none" xmlns="http://www.w3.org/2000/svg">
<path d="M3.48834 0.809989L0.940817 3.22482L0.907783 3.25908C0.731122 3.45963 0.73365 3.76549 0.921074 3.96322L0.955329 3.99625C1.15588 4.17291 1.46174 4.17038 1.65947 3.98296L3.38168 2.35018V10.8609L3.38382 10.9084C3.40784 11.1746 3.63156 11.3832 3.90399 11.3832C4.19246 11.3832 4.4263 11.1493 4.4263 10.8609V2.45732L6.03585 3.98296L6.07183 4.01412C6.28153 4.17981 6.58682 4.16094 6.77425 3.96322C6.9727 3.75386 6.96386 3.42327 6.7545 3.22482L4.20698 0.809989L4.17029 0.778268C3.96876 0.619662 3.67797 0.630236 3.48834 0.809989Z" fill="#202124"/>
<path d="M9.68647 9.97999V1.46936L9.68861 1.42182C9.71262 1.15564 9.93634 0.947056 10.2088 0.947056C10.4972 0.947056 10.7311 1.1809 10.7311 1.46936V9.87289L12.3406 8.34746L12.3766 8.31631C12.5863 8.15062 12.8916 8.16949 13.079 8.36721C13.2775 8.57656 13.2686 8.90715 13.0593 9.1056L10.5118 11.5204L10.4751 11.5522C10.2735 11.7108 9.98275 11.7002 9.79312 11.5204L7.2456 9.1056L7.21257 9.07134C7.03591 8.87079 7.03844 8.56493 7.22586 8.36721L7.26012 8.33417C7.46067 8.15751 7.76653 8.16004 7.96425 8.34746L9.68647 9.97999Z" fill="#202124"/>
</svg>

<svg width="14" height="12" fill="none" xmlns="http://www.w3.org/2000/svg"><path d="M3.488.81.941 3.225l-.033.034a.522.522 0 0 0 .013.704l.034.033c.2.177.507.174.704-.013L3.382 2.35v8.51l.002.048a.522.522 0 0 0 1.042-.047V2.457l1.61 1.526.036.031a.522.522 0 0 0 .683-.79L4.207.81 4.17.778a.522.522 0 0 0-.682.032Zm6.198 9.17V1.47l.003-.048a.522.522 0 0 1 1.042.047v8.404l1.61-1.526.036-.03a.522.522 0 0 1 .682.789l-2.547 2.414-.037.032a.522.522 0 0 1-.682-.032L7.246 9.106l-.033-.035a.522.522 0 0 1 .013-.704l.034-.033a.522.522 0 0 1 .704.013L9.686 9.98Z" fill="#202124"/></svg>
